X: 1
T:The Markham Reel
M:C
L:1/8
Q:80
C:Bruce Gandy
S:Reel
K:HP
[| {ag}a2fe{g}c{d}A{g}ec|
{g}Ae{g}ce{g}fB{G}Bc|
{ag}a2fe{g}c{d}A{g}ec|  !
{g}dB{g}ed{g}cA{gAGAG}A2|
{ag}a2fe{g}c{d}A{g}ec|
{g}Ae{g}ce{g}fB{G}Bc|  !
{g}de{g}fg{ag}a2fe|
{g}dB{g}ed{g}cA{gAGAG}A2|] [|
{g}cA{gAGAG}A2{g}eA{g}c{d}A|  !
{g}Ae{g}ce{g}fB{G}Bc|
{g}dB{g}c{d}A{g}Bf{e}fe|
{ag}a2{g}ae{g}fe{g}dB|  !
{g}cA{gAGAG}A2{g}eA{g}c{d}A|
{g}Ae{g}ce{g}fB{G}Bc|
{g}de{g}fg{ag}a2fe|  !
{g}dB{g}ed{g}cA{gAGAG}A2|]
